X: 104
T:Missa Mon seul plaisir / Sanctus
N: Derived from Jos0902d-Missa_Mon_seul_plaisir-Sanctus.krn
C: Josquin des Prez
%%abc-version 2.0
%%abcx-abcm2ps-target-version 5.9.1 (29 Sep 2008)
%%abc-creator hum2abc beta
%%abcx-conversion-date 2019/02/12 16:15:43
%%abc-edited-by Jesse Rodin
%%abc-edited-by Reinier de Valk; Victoria Chang 2012/03/28
%%abcx-initial-encoding-date 2012/03/28/
%%humdrum-veritas 1613788123
%%humdrum-veritas-data 902999748
%%linebreak <none>
%%barnumbers 0
L: 1/4
M: 2/1
Q: 1/2=120
%%staves {1 2}
V: 1 clef=treble-8
V: 2 clef=bass
K: C
[V:1] G8 | 
[V:2] G,8 | 
[V:1] F8 | 
[V:2] D,8 | 
[V:1] G8 | 
[V:2] E,8 | 
[V:1] A8 | 
[V:2] D,8 | 
[V:1] B4G4 | 
[V:2] z8 | 
[V:1] A8 | 
[V:2] D,8 | 
[V:1] G4c4 | 
[V:2] E,4C,4 | 
[V:1] d8 | 
[V:2] G,8 | 
[V:1] c8 | 
[V:2] C,3D,E,2F,2- | 
[V:1] A4B4 | 
[V:2] F,E,D,C,D,4 | 
[V:1] c8 | 
[V:2] C,6B,,A,, | 
[V:1] d8 | 
[V:2] G,,8 | 
[V:1] c8 | 
[V:2] A,,8 | 
[V:1] A4B3c | 
[V:2] D,4G,,2G,2- | 
[V:1] d2e4c2 | 
[V:2] G,2E,4F,2 | 
[V:1] d2B2c2A2- | 
[V:2] D,2E,2C,2D,2- | 
[V:1] A2d4c2 | 
[V:2] D,2B,,4C,2 | 
[V:1] B2G2A4 | 
[V:2] D,2E,2D,4 | 
[V:1] G8 | 
[V:2] G,,8 | 
[V:1] z4G4 | 
[V:2] z4G,4 | 
[V:1] d8 | 
[V:2] D,4G,4 | 
[V:1] c8 | 
[V:2] C,4F,4 | 
[V:1] d4B4 | 
[V:2] D,4E,4 | 
[V:1] A4z4 | 
[V:2] A,,8 | 
[V:1] G4c4- | 
[V:2] C,4C,3D, | 
[V:1] c2d2e4 | 
[V:2] E,4A,,4 | 
[V:1] c2e4dc | 
[V:2] z2G,4F,E, | 
[V:1] B2c4B2 | 
[V:2] D,2C,2D,4 | 
[V:1] c4z4 | 
[V:2] C,4z2G,2 | 
[V:1] c8 | 
[V:2] F,4A,4 | 
[V:1] d8 | 
[V:2] G,6F,2 | 
[V:1] G4A4 | 
[V:2] E,4D,4 | 
[V:1] G4z4 | 
[V:2] G,,2C,4B,,A,, | 
[V:1] G8 | 
[V:2] G,,8 | 
[V:1] E6D2 | 
[V:2] C,3D,C,2B,,2 | 
[V:1] E4F2G2 | 
[V:2] A,,6G,,2 | 
[V:1] E4z2e2- | 
[V:2] A,,4E,4 | 
[V:1] e2d2e4 | 
[V:2] F,4E,4 | 
[V:1] z2E4G2- | 
[V:2] A,,4A,2G,2- | 
[V:1] G2F2A3B | 
[V:2] G,2A,2F,4- | 
[V:1] c2d2B4 | 
[V:2] F,2D,2E,4 | 
[V:1] A8 | 
[V:2] F,3E,D,2C,B,, | 
[V:1] z8 | 
[V:2] A,,2A,2A,3G, | 
[V:1] z2z4A2 | 
[V:2] F,2E,D,C,2C2 | 
[V:1] A3GF2ED | 
[V:2] C3B,A,2G,F, | 
[V:1] C2c6 | 
[V:2] E,2A,,2E,2C,2 | 
[V:1] B2A6 | 
[V:2] G,2D,2z2A,2 | 
[V:1] B2A2c2B2 | 
[V:2] G,2F,4G,2 | 
[V:1] G4A4 | 
[V:2] E,4D,4 | 
[V:1] G8 | 
[V:2] E,2D,C,B,,2C,2 | 
[V:1] z8 | 
[V:2] G,,2C,3D,E,F, | 
[V:1] z8 | 
[V:2] G,3F,E,D,C,B,, | 
[V:1] z8 | 
[V:2] C,2D,2B,,4 | 
[V:1] e6d2 | 
[V:2] A,,8- | 
[V:1] c4B4 | 
[V:2] A,,4E,4 | 
[V:1] A6G2 | 
[V:2] F,6C,2 | 
[V:1] F4E4 | 
[V:2] D,4A,,4 | 
[V:1] D4z2z2 | 
[V:2] D,4G,,2G,2- | 
[V:1] z2D2A2B2 | 
[V:2] G,2F,E,D,2G,2 | 
[V:1] c6A2 | 
[V:2] C,4z2F,2- | 
[V:1] d3cBAG2 | 
[V:2] F,2D,2G,4 | 
[V:1] cBAGA4 | 
[V:2] C,2E,2D,4 | 
[V:1] !fermata!G8- | 
[V:2] E,2D,C,B,,2C,2 | 
[V:1] G8- | 
[V:2] G,,2C,4B,,2 | 
[V:1] G8- | 
[V:2] C,8 | 
[V:1] G8 ||  
[V:2] !fermata!G,,8 ||  
[V:1]  [K:C] [K:clef=treble-8][M:2/1]z8 | 
[V:2]  [K:C] [K:clef=bass][M:2/1]G,8 | 
[V:1] z8 | 
[V:2] D,4D,4 | 
[V:1] z8 | 
[V:2] E,8 | 
[V:1] z8 | 
[V:2] D,6D,2 | 
[V:1] z8 | 
[V:2] E,4C,4 | 
[V:1] z8 | 
[V:2] G,8 | 
[V:1] z8 | 
[V:2] C,4z2C,2 | 
[V:1] z8 | 
[V:2] D,2E,2D,4 | 
[V:1] z8 | 
[V:2] G,,8 | 
[V:1] z8 | 
[V:2] C,3D,E,C,F,2- | 
[V:1] z8 | 
[V:2] F,2E,2F,3E,/F,/ | 
[V:1] z8 | 
[V:2] G,4G,,4 | 
[V:1] z8 | 
[V:2] D,8 | 
[V:1] z8 | 
[V:2] A,,4D,4 | 
[V:1] z8 | 
[V:2] C,4A,,4 | 
[V:1] z8 | 
[V:2] E,3F,G,4 | 
[V:1] z8 | 
[V:2] C,4F,4 | 
[V:1] z8 | 
[V:2] E,4D,4 | 
[V:1] z8 | 
[V:2] E,6C,2 | 
[V:1] z8 | 
[V:2] D,4B,,2C,2 | 
[V:1] z8 | 
[V:2] A,,2D,4C,2 | 
[V:1] z8 | 
[V:2] D,4F,4 | 
[V:1] z8 | 
[V:2] E,4D,4 | 
[V:1] z8 | 
[V:2] z2D,2A,,2D,2- | 
[V:1] z8 | 
[V:2] D,E,F,D,E,2D,2- | 
[V:1] z8 | 
[V:2] D,2G,2F,2E,2- | 
[V:1] z8 | 
[V:2] E,2D,C,D,4 | 
[V:1] z8 | 
[V:2] C,3D,E,2F,2 | 
[V:1] z8 | 
[V:2] E,2A,,2A,2D,2 | 
[V:1] z8 | 
[V:2] A,2F,2E,4 | 
[V:1] z8 | 
[V:2] F,2E,D,C,2G,2- | 
[V:1] z8 | 
[V:2] G,2F,2E,2D,C, | 
[V:1] z8 | 
[V:2] D,4G,,4 | 
[V:1] z8 | 
[V:2] D,4z2C,2- | 
[V:1] z8 | 
[V:2] C,2F,4E,D, | 
[V:1] z8 | 
[V:2] C,2F,2E,2A,,2 | 
[V:1] z8 | 
[V:2] D,4G,,2A,,2 | 
[V:1] z8 | 
[V:2] E,4A,,2D,2- | 
[V:1] z8 | 
[V:2] D,2C,B,,A,,2D,2 | 
[V:1] z8 | 
[V:2] C,2F,2E,2A,2- | 
[V:1] z8 | 
[V:2] A,G,A,F,G,2E,2 | 
[V:1] z8 | 
[V:2] F,2D,2E,2C,2- | 
[V:1] z8 | 
[V:2] C,D,E,2D,4 | 
[V:1] z8 | 
[V:2] G,,4z2G,2- | 
[V:1] z8 | 
[V:2] G,F,E,D,E,2D,2 | 
[V:1] z8 | 
[V:2] C,2A,,2B,,4 | 
[V:1] z8 | 
[V:2] A,,8 | 
[V:1] z8 | 
[V:2] z2E,2F,2C,2 | 
[V:1] z8 | 
[V:2] D,2G,,2A,,4 | 
[V:1] z8 | 
[V:2] D,3G,,G,,4 | 
[V:1] z8 | 
[V:2] G,4E,3F, | 
[V:1] z8 | 
[V:2] G,2A,2G,4 | 
[V:1] z8 | 
[V:2] C,4z4 | 
[V:1] z8 | 
[V:2] D,4B,,3C, | 
[V:1] z8 | 
[V:2] D,2E,2D,4 | 
[V:1] z8 ||  
[V:2] G,,8 ||  
[V:1]  [K:C] [K:clef=treble-8][M:3/1]G12 | 
[V:2]  [K:C] [K:clef=bass][M:3/1]G,12 | 
[V:1] A8G4- | 
[V:2] D,8E,4 | 
[V:1] G12 | 
[V:2] C,4G,8 | 
[V:1] G12- | 
[V:2] C,12 | 
[V:1] G12 | 
[V:2] G,6F,2E,4 | 
[V:1] A8d4 | 
[V:2] D,12 | 
[V:1] B8c4- | 
[V:2] G,8A,4- | 
[V:1] c4d8 | 
[V:2] A,4G,8 | 
[V:1] c8z4 | 
[V:2] C,6D,2E,4 | 
[V:1] A8B4 | 
[V:2] F,4D,8 | 
[V:1] c3BAGG4F2 | 
[V:2] C,6B,,2A,,4 | 
[V:1] G4B4c4 | 
[V:2] G,,4G,4A,4 | 
[V:1] A4B8 | 
[V:2] F,4E,8 | 
[V:1] A12 | 
[V:2] A,,12 | 
[V:1] A6G2A2B2 | 
[V:2] D,6E,2F,2G,2 | 
[V:1] c4B4A4 | 
[V:2] C,4G,4F,4 | 
[V:1] G6FEF4 | 
[V:2] E,4D,8 | 
[V:1] G8z4 | 
[V:2] C,4z4C,4 | 
[V:1] c8d3c | 
[V:2] F,4A,4G,3A, | 
[V:1] d4cBAGA4 | 
[V:2] G,2D,2F,2G,2D,4 | 
[V:1] G8z4 | 
[V:2] G,,3A,,B,,2C,2G,,4 | 
[V:1] G3AB2c2d2B2 | 
[V:2] C,4z4z4 | 
[V:1] c2A2c2d2B4 | 
[V:2] z4z4E,4 | 
[V:1] A3G/A/B2A4^G2 | 
[V:2] F,3E,D,2C,2B,,4 | 
[V:1] [M:2/1]A8 | 
[V:2] [M:2/1]A,,8 | 
[V:1] z8 | 
[V:2] z8 | 
[V:1] A8- | 
[V:2] D,8 | 
[V:1] A4G4- | 
[V:2] A,,4C,4- | 
[V:1] G4F2E2 | 
[V:2] C,4D,4 | 
[V:1] F4D4 | 
[V:2] D,8 | 
[V:1] E8 | 
[V:2] C,4A,,4 | 
[V:1] F4G4 | 
[V:2] D,4E,4 | 
[V:1] A8 | 
[V:2] D,8 | 
[V:1] G8 | 
[V:2] G,,8 | 
[V:1] (3:2:1G12 | 
[V:2] (3:2:2G,,8G,4 | 
[V:1] (3:2:1c12 | 
[V:2] (3:2:2F,8A,4 | 
[V:1] (3:2:2d8e4 | 
[V:2] (3:2:2G,8E,4 | 
[V:1] (3c6A2B4 | 
[V:2] (3:2:2F,8G,4 | 
[V:1] (3c4z4G4 | 
[V:2] (3:2:2C,8G,4 | 
[V:1] (3:2:1c12 | 
[V:2] (3:2:2F,8A,4 | 
[V:1] (3:2:2d8B4 | 
[V:2] (3G,4D,4E,4 | 
[V:1] (3:2:2c4A8 | 
[V:2] (3:2:2C,4D,8 | 
[V:1] !fermata!G8 ||  
[V:2] !fermata!G,,8 ||  
[V:1]  [K:C] [K:clef=treble-8][M:2/1]G8 | 
[V:2]  [K:C] [K:clef=bass][M:2/1]G,,3A,,B,,C,D,2- | 
[V:1] F8 | 
[V:2] D,2C,B,,A,,4 | 
[V:1] G8 | 
[V:2] G,,8 | 
[V:1] D4d4 | 
[V:2] z4D,4 | 
[V:1] B4c4 | 
[V:2] E,4C,4 | 
[V:1] d8 | 
[V:2] G,8 | 
[V:1] c8 | 
[V:2] C,3D,E,2F,2- | 
[V:1] A3Bc2A2 | 
[V:2] F,2E,D,C,2D,2 | 
[V:1] B4A2d2- | 
[V:2] G,,4D,3E, | 
[V:1] d2cBA4 | 
[V:2] F,2G,2D,4 | 
[V:1] G8 | 
[V:2] E,6C,2 | 
[V:1] z4z2E2- | 
[V:2] C,3A,,A,,2C,2- | 
[V:1] E2A2G2c2- | 
[V:2] C,2D,2E,2C,2 | 
[V:1] c2BAB4 | 
[V:2] F,4E,4 | 
[V:1] A4z2A2- | 
[V:2] A,,4D,2C,2 | 
[V:1] A2B2c4 | 
[V:2] D,4A,,4 | 
[V:1] B2e4c2 | 
[V:2] E,3F,G,2A,2 | 
[V:1] d4G2d2- | 
[V:2] F,2D,2G,2D,2 | 
[V:1] d2cBA4 | 
[V:2] F,2G,2D,4 | 
[V:1] G4z4 | 
[V:2] G,,8 | 
[V:1] c6B2 | 
[V:2] z8 | 
[V:1] A4G4 | 
[V:2] F,6E,2 | 
[V:1] A6G2 | 
[V:2] D,4C,4 | 
[V:1] F4E4 | 
[V:2] D,4A,,4 | 
[V:1] D2d3cBA | 
[V:2] D,3E,F,2G,2- | 
[V:1] G2d2e2d2- | 
[V:2] G,F,E,D,C,2G,2 | 
[V:1] dcc4B2 | 
[V:2] F,2E,2D,4 | 
[V:1] c4z4 | 
[V:2] C,4z4 | 
[V:1] z8 | 
[V:2] z8 | 
[V:1] z8 | 
[V:2] z8 | 
[V:1] z8 | 
[V:2] z8 | 
[V:1] z4d4 | 
[V:2] z4D,4 | 
[V:1] B2c2B2e2- | 
[V:2] E,8 | 
[V:1] e2d2e3d | 
[V:2] F,4E,4 | 
[V:1] B3cd3c | 
[V:2] G,3F,D,3E, | 
[V:1] A3Bcde2- | 
[V:2] F,3G,A,3G, | 
[V:1] edd4^c2 | 
[V:2] F,E,D,2E,4 | 
[V:1] d4z4 | 
[V:2] D,8 | 
[V:1] G8- | 
[V:2] z4G,,4 | 
[V:1] G4c4- | 
[V:2] G,4F,4- | 
[V:1] c8 | 
[V:2] F,4A,4 | 
[V:1] d4e4 | 
[V:2] G,4E,4 | 
[V:1] d4B4 | 
[V:2] F,4G,4 | 
[V:1] c6BA | 
[V:2] C,4z4 | 
[V:1] G2d2e2d2- | 
[V:2] z2G,2E,2G,2- | 
[V:1] d4e2c2 | 
[V:2] G,F,G,2E,2F,2- | 
[V:1] d6B2 | 
[V:2] F,E,F,2D,2E,2- | 
[V:1] c6A2 | 
[V:2] E,D,E,2C,2D,2 | 
[V:1] B2G2A2F2 | 
[V:2] B,,2C,2A,,2B,,2 | 
[V:1] G3ABcd2 | 
[V:2] G,,2G,4F,2 | 
[V:1] G4A4 | 
[V:2] E,4D,4 | 
[V:1] !fermata!G8 |]  
[V:2] !fermata!G,,8 |]  



